X:6912
T:The Hills of Glenorchy
O:england
C:Trad
R:Air
M:3/4
K:EDor
L:1/4
dc |: B2 E | E>F E | B>A B | d2 B | A2 D | D>E D | F D F | A d c |
B2 E | E>F E | B>A B | e3 | d B d | A F D | E3 |1 E d c :|2 E2 B |
|: e>f e | e d B | e f g | g f e | d>e d | d A F | d e f | f e d |
e>f e | e d B | e f g | f2 e | d B d | A F D | E3 |1 E2 B :|2 E3 |


